X: 133
M:2/4
L:1/16
K:G
g3f e2f2 | .g2((3fga) g2B2 | g3f e2f2 | g3f gab2 |
g3f e3f | g2f2g2a2 | b2 BB B2B2 | B4 z2 Ac | BGAF GEDB,|]


